src/assets/duotone/Electricity.svg

<svg width="24" height="24" viewBox="0 0 24 24"  xmlns="http://www.w3.org/2000/svg">
<path opacity="0.4" d="M10.4998 16H13.4998C15.9998 16 17.4998 14.2 17.4998 12V6.91C17.4998 5.86 16.6398 5 15.5898 5H8.41982C7.36982 5 6.50982 5.86 6.50982 6.91V12C6.49982 14.2 7.99981 16 10.4998 16Z" />
<path d="M10.25 2V5H8.75V2C8.75 1.59 9.09 1.25 9.5 1.25C9.91 1.25 10.25 1.59 10.25 2Z" />
<path d="M15.25 2V5H13.75V2C13.75 1.59 14.09 1.25 14.5 1.25C14.91 1.25 15.25 1.59 15.25 2Z" />
<path d="M12.75 16V22C12.75 22.41 12.41 22.75 12 22.75C11.59 22.75 11.25 22.41 11.25 22V16H12.75Z" />
</svg>

<?xml version="1.0" encoding="UTF-8"?>
<svg width="24" height="24" viewBox="0 0 24 24" xmlns="http://www.w3.org/2000/svg">
 <path d="m10.5 16h3c2.5 0 4-1.8 4-4v-5.09c0-1.05-0.86-1.91-1.91-1.91h-7.17c-1.05 0-1.91 0.86-1.91 1.91v5.09c-0.01 2.2 1.49 4 3.99 4z" opacity=".4"/>
 <path d="m10.25 2v3h-1.5v-3c0-0.41 0.34-0.75 0.75-0.75s0.75 0.34 0.75 0.75z"/>
 <path d="m15.25 2v3h-1.5v-3c0-0.41 0.34-0.75 0.75-0.75s0.75 0.34 0.75 0.75z"/>
 <path d="m12.75 16v6c0 0.41-0.34 0.75-0.75 0.75s-0.75-0.34-0.75-0.75v-6h1.5z"/>
</svg>
